packages/core/src/svgs/tokens/mono/MOBI.svg

<svg width="24" height="24" viewBox="0 0 24 24" fill="none" xmlns="http://www.w3.org/2000/svg">
<path d="M6.06585 8.00024C2.97937 8.06375 2.10488 10.5128 2.03638 11.7273L2.53988 11.8813C4.07287 9.79026 6.32185 10.7112 7.31833 11.2742C8.59582 11.9957 11.6213 13.6977 13.5018 14.7327C15.3822 15.7676 17.3347 16.0087 18.0757 15.9997C21.0598 15.8732 21.7887 13.2447 21.9593 12.0132L21.5507 11.7232C20.5488 14.0462 17.7263 13.2367 16.4403 12.5412C15.1287 11.7932 12.0758 10.0703 10.3588 9.16173C8.64182 8.25374 6.78084 8.00924 6.06585 8.00024Z" fill="white"/>
<path d="M21.6903 13.0669C21.3253 11.106 19.2454 10.6154 18.2518 10.6154C17.3823 10.5655 15.7959 10.6845 14.2279 11.2715L12.9844 10.5835C15.0308 8.68251 17.3029 8.27352 18.2518 8.32151C22.4308 8.59151 22.2853 11.598 21.6903 13.0669Z" fill="white"/>
<path d="M5.77723 15.7207C1.77226 15.6126 1.72876 12.4972 2.20726 10.9531C2.78225 12.9321 4.82724 13.4571 5.77723 13.4722C7.12654 13.4067 8.45653 13.1246 9.71624 12.6366L11.0847 13.3981C9.1077 15.2786 6.75272 15.7351 5.77723 15.7207Z" fill="white"/>
</svg>

<svg xmlns="http://www.w3.org/2000/svg" width="24" height="24" fill="none" viewBox="0 0 24 24">
    <path fill="#fff" d="M6.066 8c-3.087.064-3.961 2.513-4.03 3.727l.504.154c1.533-2.09 3.782-1.17 4.778-.607 1.278.722 4.303 2.424 6.184 3.459 1.88 1.035 3.833 1.276 4.574 1.267 2.984-.127 3.713-2.755 3.883-3.987l-.408-.29c-1.002 2.323-3.825 1.514-5.11.818-1.312-.748-4.365-2.47-6.082-3.38-1.717-.907-3.578-1.152-4.293-1.16"/>
    <path fill="#fff" d="M21.69 13.067c-.365-1.961-2.445-2.452-3.438-2.452-.87-.05-2.456.07-4.024.656l-1.244-.687c2.047-1.901 4.319-2.31 5.268-2.262 4.179.27 4.033 3.276 3.438 4.745M5.777 15.72c-4.005-.107-4.048-3.223-3.57-4.767.575 1.98 2.62 2.504 3.57 2.52 1.35-.066 2.68-.348 3.94-.836l1.368.761c-1.977 1.88-4.332 2.337-5.308 2.323"/>
</svg>
